resources/svg/file-line.svg

<svg fill="currentColor" viewBox="0 0 24 24" xmlns="http://www.w3.org/2000/svg"><path d="M9 2.00318V2H19.9978C20.5513 2 21 2.45531 21 2.9918V21.0082C21 21.556 20.5551 22 20.0066 22H3.9934C3.44476 22 3 21.5501 3 20.9932V8L9 2.00318ZM5.82918 8H9V4.83086L5.82918 8ZM11 4V9C11 9.55228 10.5523 10 10 10H5V20H19V4H11Z"/></svg>

<svg xmlns="http://www.w3.org/2000/svg" viewBox="0 0 24 24" fill="currentColor">
    <g>
        <path fill="none" d="M0 0h24v24H0z"/>
        <path d="M9 2.003V2h10.998C20.55 2 21 2.455 21 2.992v18.016a.993.993 0 0 1-.993.992H3.993A1 1 0 0 1 3 20.993V8l6-5.997zM5.83 8H9V4.83L5.83 8zM11 4v5a1 1 0 0 1-1 1H5v10h14V4h-8z"/>
    </g>
</svg>
